spyder/images/light/editdelete.svg

<svg width="24" height="24" viewBox="0 0 24 24" fill="none" xmlns="http://www.w3.org/2000/svg">
<path d="M4.92857 17.1111C4.92857 18.15 5.76429 19 6.78571 19H14.2143C15.2357 19 16.0714 18.15 16.0714 17.1111V5.77778H4.92857V17.1111ZM17 2.94444H13.75L12.8214 2H8.17857L7.25 2.94444H4V4.83333H17V2.94444Z" fill="#37414F"/>
<path fill-rule="evenodd" clip-rule="evenodd" d="M10.4139 5.77783H16.0714V7.83339H7V5.9445H10.25L10.4139 5.77783ZM17.0714 5.9445V7.83339H20V5.9445H17.0714ZM16.0714 8.77783V17.1112C16.0714 18.1501 15.2357 19.0001 14.2143 19.0001H7.92857V8.77783H16.0714ZM17.0714 8.77783H19.0714V20.1112C19.0714 21.1501 18.2357 22.0001 17.2143 22.0001H9.78571C8.76429 22.0001 7.92857 21.1501 7.92857 20.1112V20.0001H14.2143C15.8039 20.0001 17.0714 18.6863 17.0714 17.1112V8.77783Z" fill="#37414F"/>
</svg>

<svg xmlns="http://www.w3.org/2000/svg" width="24" height="24" fill="none"><path fill="#37414F" d="M4.929 17.111c0 1.039.835 1.889 1.857 1.889h7.428c1.022 0 1.857-.85 1.857-1.889V5.778H4.93V17.11ZM17 2.944h-3.25L12.821 2H8.18l-.929.944H4v1.89h13v-1.89Z"/><path fill="#37414F" fill-rule="evenodd" d="M10.414 5.778h5.657v2.055H7V5.944h3.25l.164-.166Zm6.657.167v1.888H20V5.944h-2.929Zm-1 2.833v8.333c0 1.04-.835 1.89-1.857 1.89H7.93V8.777h8.142Zm1 0h2V20.11c0 1.04-.835 1.89-1.857 1.89H9.786c-1.022 0-1.857-.85-1.857-1.89v-.11h6.285c1.59 0 2.857-1.315 2.857-2.89V8.778Z" clip-rule="evenodd"/></svg>
